!!!OTL: Die himmlischen Freuden Wir geniessen die himmlischen Freuden,
!!!ARE: Europa, Mitteleuropa, Lothringen, Halsdorf ( Kr. Diedenhofen )
!!!SCT: D0043
!!!YEM: Copyright 1995, estate of Helmut Schaffrath.
**kern
*ICvox
*Ivox
*M3/4
*k[b-]
*F:
{8.f
16f
=1
4a
4a
4b-
=2
4cc
4cc
4cc
=3
2a
4b-
=4
2cc}
{4cc
=5
4dd
4cc
4b-
=6
4a
4g
4f
=7
2e
4f
=8
2g}
{4f
=9
4a
4cc
4bn
=10
4cc
4dd
4bn
=11
4cc
4dd
4bn
=12
4cc
4cc
4r}
=13
{2dd
4ff
=14
4.ee
8dd
4cc
=15
4ff
4ee
4dd
=16
2.cc}
=17
{2.b-
=18
4a
4cc
4a
=19
4g
4f
4g
=20
2f}
==
!!!AGN: geistliches Lied
!! Achttonskala ( Ionisch in die Dominanttonart modulierend )
!!    Inzipit = Variante zum Lied
!!!ONB: ESAC (Essen Associative Code) Database: DVA
!!!AMT: simple triple
!!!AIN: vox
!!!EED: Helmut Schaffrath
!!!EEV: 1.0
*-
